!!!OTL: "Der Strassburger Sohn" ES KAM EIN ABENTEURER ZU REITEN
!!!ARE: Europa, Mitteleuropa, Deutschland
!!!SCT: Z1035
!!!YEM: Copyright 1995, estate of Helmut Schaffrath.
**kern
*ICvox
*Ivox
*M4/4
*k[f#]
*G:
{4g
=1
8g
8dd
8dd
8dd
4dd
8ee
8gg
=2
4ffn
4ee
4dd
8r}
{8ee
=3
4ffn
8dd
8dd
4dd
8a
8b
=4
4cc
4b
4a
8r}
{8dd
=5
4dd
8dd
8b
4.g
8b
=6
8dd
8cc
8cc
8b
4.a}
{8b
=7
8cc
8b
8a
8g
4f#
4g
=8
4.a
16b
16a
4g}
==
!!!AGN: Romanze, Ballade
!!!ONB: ESAC (Essen Associative Code) Database: ZUCCAL
!!!AMT: simple quadruple
!!!AIN: vox
!!!EED: Helmut Schaffrath
!!!EEV: 1.0
*-
